X:1
T:He Whispers His Love to Me
T:Vivian McCown, 1920
T:He Whispers His Love to Me
T:Public Domain
T:Public Domain
C:Vivian McCown, 1920
Z:Public Domain
%%score ( 1 2 ) 3
L:1/8
M:4/4
K:Ab
V:1 treble 
V:2 treble 
V:3 bass 
V:1
 [Ec]>[DB] | [CA]2 [CE]>[DF] [CE]2 [CA]>[CF] | [DG]2 [DG]2 [DG]2 [Ed]>[Ec] | %3
w: 1.~’Tis so|sweet just to know that a-|long the way Je- sus|
w: 2.~When He|scat- ters the gifts from His|bound- less store, And His|
w: 3.~When my|heart is so tempt- ed and|sore- ly tried, It is|
w: 4.~O His|voice is so wond- rous- ly|sweet to me! There’s no|
 [DB]2 [DE]>[DF] [DE]2 [DG]>[DF] | [DF]2 [CE]2 [CE]2 [Ec]>[DB] | [CA]2 [CE]>[DF] [CE]2 [CA]>[EF] | %6
w: walks by my side all the|live- long day, And He|knows when the sha- dows be-|
w: show- ers of bless- ing a-|round me pour, Lest I|hum- ble and grate- ful for-|
w: then that I know He is|by my side, And I|know He will give me the|
w: mu- sic on earth has such|mel- o- dy; There’s no|joy that can come to the|
 [EG]2 [FA]2 [GB]2 [EB]>[EB] | [=DB]2 [F=d]>[Ac] [GB]2 [FA]>[DF] | .[EG]2 .[=DA]2 [_DB]2 || %9
w: gin to low’r, And He|whis- pers His love to me|o’er and o’er.|
w: get to be, Je- sus|whis- pers His won- der- ful|love to me.|
w: vic- to- ry, As He|whis- pers His won- der- ful|love to me.|
w: hu- man heart Like the|joy that His love ev- er|doth im- part.|
"^Refrain" E2 | [Ec] [Ec]2 [CA] E2 [EF]2 | (D2 D2 D2) [DE]2 | [Fd] [Fd]2 [Fd] [Ec]2 [DB]2 | %13
w: ||||
w: He|pers His love to me,|whis- * * pers|love to me; Lest I|
w: ||||
w: ||||
 (C2 C2 C2) [CE]2 | [Ec]2 [EA]2 [Ed]2 [EB]2 | [Ec]2 [Ed]2 [Ae]2 [Fd]2 | %16
w: |||
w: should * * stray|Him a- way, He|whis- pers His love|
w: |||
w: |||
 [Ec] [Ec]2 [Ed] [Ec]2 [DB]2 | [CA]6 |] %18
w: ||
w: to me. * * *||
w: ||
w: ||
V:2
 x2 | x8 | x8 | x8 | x8 | x8 | x8 | x8 | x6 || E2 | x4 E2 x2 | G6 x2 | x8 | A6 x2 | x8 | x8 | x8 | %17
w: |||||||||||||||||
w: |||||||||whis-|He|His||from||||
 x6 |] %18
w: |
w: |
V:3
 [A,,A,]>[A,,A,] | [A,,A,]2 [A,,A,]>[A,,A,] [A,,A,]2 [A,,A,]>[A,,A,] | %2
w: ~ ~|~ ~ ~ ~ ~ ~|
 [E,B,]2 [E,B,]2 [E,B,]2 [E,B,]>[E,B,] | [E,G,]2 [E,G,]>[D,A,] [E,G,]2 [E,B,]>[E,G,] | %4
w: ~ ~ ~ ~ ~|~ ~ ~ ~ ~ ~|
 [A,,A,]2 [A,,A,]2 [A,,A,]2 [A,,A,]>[A,,A,] | [A,,A,]2 [A,,A,]>[A,,A,] [A,,A,]2 [A,,A,]>[A,,C] | %6
w: ~ ~ ~ ~ ~|~ ~ ~ ~ ~ ~|
 [E,B,]2 [E,B,]2 [E,E]2 [E,G,]>[E,G,] | [B,,A,]2 [B,,B,]>[B,,B,] [B,,B,]2 [B,,B,]>[B,,B,] | %8
w: ~ ~ ~ ~ ~|~ ~ ~ ~ ~ ~|
 [E,B,]2 [F,B,]2 [E,G,]2 || [E,G,]2 | [A,,A,] [A,,A,]2 [A,,A,] [C,A,]2 [_C,A,]2 | %11
w: ~ ~ ~|~|~ ~ ~ ~ His|
 [B,,E,]2 [B,,E,]2 [E,B,]2 [E,G,]2 | [E,G,] [E,G,]2 [E,G,] [E,G,]2 [E,G,]2 | %13
w: love to me ~|~ ~ ~ ~ His|
 [A,,E,]2 [A,,E,]2 [A,,E,]2 [A,,A,]2 | [A,,A,]2 [C,A,]2 [B,,G,]2 [E,G,]2 | %15
w: love to me *||
 [A,,A,]2 [B,,G,]2 [C,A,]2 [D,A,]2 | [E,A,] [E,A,]2 [E,B,] [E,G,]2 [E,G,]2 | [A,,E,A,]6 |] %18
w: |||

